X: 20461
T: MISS WARRENDER, OF LOCHEND'S STRATHSPEY
C:
%R: strathspey
B: Elias Howe "The Musician's Companion" 1843 p.46 #1
S: http://imslp.org/wiki/The_Musician's_Companion_(Howe,_Elias)
Z: 2015 John Chambers <jc:trillian.mit.edu>
M: C|
L: 1/8
K: D
% - - - - - - - - - - - - - - - - - - - - - - - - -
f |\
d<D A>F Eeef | d<D AF A>Bd>A |\
B<dA>F Egfe | d<BA>F Ddd :|
|: f |\
a>da>f beef | a<da>d a<da>f |\
g<bf<a e>de>f | dB AF Ddd :|
% - - - - - - - - - - - - - - - - - - - - - - - - -

%%sep 1 1 500

